X: 28419
T: Mull Of The Mountains
R: waltz
M: 3/4
K: Dmajor
d4A2|A3B A2|f4 f2|fa3 f2|e3fd2|d4 e2|f3e d2|B3A G2|
A3B A2|A4 fg|a3g f2|e4 de|f3e d2|Bd3 B2|A6|1 A6:|2 A4B2||
|:d3f d2|Bd3 B2|A3B d2|fa3 f2|e3f e2|f3e d2|B3d B2|B3A G2|
A3B A2|A4 fg|a3g f2|e4 de|f3e d2|Bd3 B2|A6|1 A4B2:|2 A6||

